dist/assets/img/questions/5/backdrop-active_1200.svg

<svg width="671" height="531" viewBox="0 0 671 531" fill="none" xmlns="http://www.w3.org/2000/svg">
<g filter="url(#filter0_di_1479_49101)">
<path fill-rule="evenodd" clip-rule="evenodd" d="M580.079 133.327C540.381 36.1072 419.604 28.87 310.882 28.9997C202.354 29.1292 57.2875 50.6378 42.2176 167.028C29.6523 264.074 72.0866 369.614 129.001 423.846C194.245 486.016 368.877 506.261 477.415 431.213C550.371 380.769 609.95 272.993 591.435 172.215C590.255 165.792 594.778 159.606 601.169 158.261C611.139 156.163 621.725 152.098 630.852 144.713C630.98 144.61 630.898 144.404 630.734 144.417C616.309 145.578 599.818 146.905 585.915 140.04C583.166 138.683 581.238 136.164 580.079 133.327Z" fill="white"/>
</g>
<defs>
<filter id="filter0_di_1479_49101" x="0" y="0.998047" width="670.914" height="530.502" filterUnits="userSpaceOnUse" color-interpolation-filters="sRGB">
<feFlood flood-opacity="0" result="BackgroundImageFix"/>
<feColorMatrix in="SourceAlpha" type="matrix" values="0 0 0 0 0 0 0 0 0 0 0 0 0 0 0 0 0 0 127 0" result="hardAlpha"/>
<feOffset dy="12"/>
<feGaussianBlur stdDeviation="20"/>
<feComposite in2="hardAlpha" operator="out"/>
<feColorMatrix type="matrix" values="0 0 0 0 0.909804 0 0 0 0 0.313726 0 0 0 0 0.470588 0 0 0 1 0"/>
<feBlend mode="normal" in2="BackgroundImageFix" result="effect1_dropShadow_1479_49101"/>
<feBlend mode="normal" in="SourceGraphic" in2="effect1_dropShadow_1479_49101" result="shape"/>
<feColorMatrix in="SourceAlpha" type="matrix" values="0 0 0 0 0 0 0 0 0 0 0 0 0 0 0 0 0 0 127 0" result="hardAlpha"/>
<feOffset dy="-4"/>
<feGaussianBlur stdDeviation="4"/>
<feComposite in2="hardAlpha" operator="arithmetic" k2="-1" k3="1"/>
<feColorMatrix type="matrix" values="0 0 0 0 0.909804 0 0 0 0 0.313726 0 0 0 0 0.470588 0 0 0 0.48 0"/>
<feBlend mode="normal" in2="shape" result="effect2_innerShadow_1479_49101"/>
</filter>
</defs>
</svg>

<svg width="671" height="531" viewBox="0 0 671 531" fill="none" xmlns="http://www.w3.org/2000/svg"><g filter="url(#filter0_di_1479_49101)"><path fill-rule="evenodd" clip-rule="evenodd" d="M580.079 133.327C540.381 36.107 419.604 28.87 310.882 29c-108.528.13-253.595 21.638-268.664 138.028C29.652 264.074 72.087 369.614 129 423.846c65.244 62.17 239.876 82.415 348.414 7.367 72.956-50.444 132.535-158.22 114.02-258.998-1.18-6.423 3.343-12.609 9.734-13.954 9.97-2.098 20.556-6.163 29.683-13.548a.167.167 0 00-.118-.296c-14.425 1.161-30.916 2.488-44.819-4.377-2.749-1.357-4.677-3.876-5.836-6.713z" fill="#fff"/></g><defs><filter id="filter0_di_1479_49101" x="0" y=".998" width="670.914" height="530.502" filterUnits="userSpaceOnUse" color-interpolation-filters="sRGB"><feFlood flood-opacity="0" result="BackgroundImageFix"/><feColorMatrix in="SourceAlpha" values="0 0 0 0 0 0 0 0 0 0 0 0 0 0 0 0 0 0 127 0" result="hardAlpha"/><feOffset dy="12"/><feGaussianBlur stdDeviation="20"/><feComposite in2="hardAlpha" operator="out"/><feColorMatrix values="0 0 0 0 0.909804 0 0 0 0 0.313726 0 0 0 0 0.470588 0 0 0 1 0"/><feBlend in2="BackgroundImageFix" result="effect1_dropShadow_1479_49101"/><feBlend in="SourceGraphic" in2="effect1_dropShadow_1479_49101" result="shape"/><feColorMatrix in="SourceAlpha" values="0 0 0 0 0 0 0 0 0 0 0 0 0 0 0 0 0 0 127 0" result="hardAlpha"/><feOffset dy="-4"/><feGaussianBlur stdDeviation="4"/><feComposite in2="hardAlpha" operator="arithmetic" k2="-1" k3="1"/><feColorMatrix values="0 0 0 0 0.909804 0 0 0 0 0.313726 0 0 0 0 0.470588 0 0 0 0.48 0"/><feBlend in2="shape" result="effect2_innerShadow_1479_49101"/></filter></defs></svg>
